svgs/thin/square-phone-hangup.svg

<svg xmlns="http://www.w3.org/2000/svg" viewBox="0 0 448 512"><!--! Font Awesome Pro 6.3.0 by @fontawesome - https://fontawesome.com License - https://fontawesome.com/license (Commercial License) Copyright 2023 Fonticons, Inc. --><path d="M56.59 245.2C48.75 253.1 47.38 265.1 53.25 274.4l27.4 43.84c5.988 9.568 18.14 13.68 28.85 9.469l54.89-21.92c9.666-3.922 15.7-13.89 14.65-24.29L176.2 253.3c31.02-9.281 64.51-9.271 95.58 .0098l-2.783 28.11c-1.16 10.44 4.916 20.5 14.71 24.36l54.8 21.92c10.61 4.199 22.74 .2422 28.77-9.459l27.42-43.82c5.889-9.379 4.518-21.4-3.326-29.24C299.1 152.9 148.9 152.9 56.59 245.2zM381.2 265.1l-27.41 43.85c-1.967 3.117-5.855 4.398-9.281 3.051l-54.81-21.91c-3.184-1.236-5.127-4.508-4.74-7.855l4.076-40.93l-6-2.045C244.1 227.2 203.1 227.2 165 240.1l-5.988 2.055L163.1 283.1c.3535 3.359-1.59 6.586-4.695 7.834l-54.81 21.89C100.1 314.2 96.13 313 94.24 309.8L66.81 265.9c-1.889-3.016-1.436-6.871 1.094-9.402c86.07-86.07 226.1-86.07 312.2 0C382.6 259.1 383.1 262.9 381.2 265.1zM384 32H64C28.65 32 0 60.65 0 96v320c0 35.35 28.65 64 64 64h320c35.35 0 64-28.65 64-64V96C448 60.65 419.3 32 384 32zM432 416c0 26.47-21.53 48-48 48H64c-26.47 0-48-21.53-48-48V96c0-26.47 21.53-48 48-48h320c26.47 0 48 21.53 48 48V416z"/></svg>

<svg xmlns="http://www.w3.org/2000/svg" viewBox="0 0 448 512"><!-- Font Awesome Pro 6.0.0-alpha2 by @fontawesome - https://fontawesome.com License - https://fontawesome.com/license (Commercial License) --><path d="M56.594 245.229C48.75 253.072 47.381 265.094 53.246 274.43L80.646 318.27C86.635 327.838 98.789 331.947 109.494 327.738L164.385 305.818C174.051 301.896 180.084 291.93 179.035 281.533L176.24 253.35C207.264 244.068 240.752 244.078 271.82 253.359L269.037 281.467C267.877 291.908 273.953 301.963 283.742 305.83L338.543 327.75L338.576 327.76C349.182 331.959 361.281 327.992 367.312 318.291L394.736 274.473C400.625 265.094 399.254 253.072 391.41 245.229C299.109 152.93 148.904 152.918 56.594 245.229ZM381.18 265.977L353.768 309.828C351.801 312.945 347.912 314.227 344.486 312.879L289.676 290.969C286.492 289.732 284.549 286.461 284.936 283.113L289.012 242.18L283.012 240.135C244.951 227.152 203.055 227.152 165.047 240.146L159.059 242.201L163.113 283.135C163.467 286.494 161.523 289.721 158.418 290.969L103.605 312.855C100.148 314.236 96.127 313 94.236 309.807L66.814 265.943C64.926 262.928 65.379 259.072 67.908 256.541C153.977 170.475 294.027 170.475 380.096 256.541C382.615 259.061 383.068 262.939 381.18 265.977ZM384 32H64C28.652 32 0 60.654 0 96V416C0 451.346 28.652 480 64 480H384C419.346 480 448 451.346 448 416V96C448 60.654 419.346 32 384 32ZM432 416C432 442.467 410.467 464 384 464H64C37.533 464 16 442.467 16 416V96C16 69.533 37.533 48 64 48H384C410.467 48 432 69.533 432 96V416Z"/></svg>
